build/images/icons/percent.svg

<svg width="17" height="17" viewBox="0 0 17 17" fill="none" xmlns="http://www.w3.org/2000/svg">
<path d="M6.14209 1.98291C6.73682 2.65967 7.03418 3.57568 7.03418 4.73096C7.03418 5.88623 6.73682 6.80566 6.14209 7.48926C5.54736 8.17285 4.75098 8.51465 3.75293 8.51465C2.75488 8.51465 1.9585 8.17285 1.36377 7.48926C0.775879 6.80566 0.481934 5.88623 0.481934 4.73096C0.481934 3.57568 0.775879 2.65967 1.36377 1.98291C1.9585 1.29932 2.75488 0.95752 3.75293 0.95752C4.75098 0.95752 5.54736 1.29932 6.14209 1.98291ZM3.75293 6.90479C4.13574 6.90479 4.43311 6.71338 4.64502 6.33057C4.86377 5.94092 4.97314 5.40771 4.97314 4.73096C4.97314 4.04736 4.86377 3.51416 4.64502 3.13135C4.43311 2.7417 4.13574 2.54688 3.75293 2.54688C3.37695 2.54688 3.07959 2.7417 2.86084 3.13135C2.64893 3.51416 2.54297 4.04736 2.54297 4.73096C2.54297 5.40771 2.64893 5.94092 2.86084 6.33057C3.07959 6.71338 3.37695 6.90479 3.75293 6.90479ZM3.95801 16H1.72266L7.45459 8.15576L12.5405 1.20361H14.7554L9.17725 8.84277L3.95801 16ZM15.1143 9.65283C15.709 10.3364 16.0063 11.2559 16.0063 12.4111C16.0063 13.5664 15.709 14.4858 15.1143 15.1694C14.5195 15.8462 13.7231 16.1846 12.7251 16.1846C11.7271 16.1846 10.9307 15.8462 10.3359 15.1694C9.74805 14.4858 9.4541 13.5664 9.4541 12.4111C9.4541 11.2559 9.74805 10.3364 10.3359 9.65283C10.9307 8.96924 11.7271 8.62744 12.7251 8.62744C13.7231 8.62744 14.5195 8.96924 15.1143 9.65283ZM11.833 14.0005C12.0518 14.3901 12.3491 14.585 12.7251 14.585C13.1011 14.585 13.3984 14.3901 13.6172 14.0005C13.8359 13.6108 13.9453 13.0776 13.9453 12.4009C13.9453 11.7241 13.8359 11.1909 13.6172 10.8013C13.3984 10.4116 13.1011 10.2168 12.7251 10.2168C12.3491 10.2168 12.0518 10.4116 11.833 10.8013C11.6211 11.1909 11.5151 11.7241 11.5151 12.4009C11.5151 13.0776 11.6211 13.6108 11.833 14.0005Z" fill="#2F3035"/>
</svg>

<svg width="17" height="17" fill="none" xmlns="http://www.w3.org/2000/svg"><path d="M6.142 1.983c.595.677.892 1.593.892 2.748 0 1.155-.297 2.075-.892 2.758-.595.684-1.391 1.026-2.39 1.026-.997 0-1.793-.342-2.388-1.026C.776 6.806.482 5.886.482 4.731s.294-2.071.882-2.748C1.958 1.299 2.754.958 3.753.958c.998 0 1.794.341 2.39 1.025zm-2.39 4.922c.384 0 .681-.192.893-.574.219-.39.328-.923.328-1.6 0-.684-.11-1.217-.328-1.6-.212-.39-.51-.584-.892-.584-.376 0-.673.195-.892.584-.212.383-.318.916-.318 1.6 0 .677.106 1.21.318 1.6.219.382.516.574.892.574zM3.959 16H1.723l5.732-7.844 5.085-6.952h2.215L9.177 8.843 3.958 16zm11.156-6.347c.595.683.892 1.603.892 2.758s-.297 2.075-.892 2.758c-.595.677-1.39 1.016-2.389 1.016-.998 0-1.794-.339-2.39-1.016-.587-.683-.88-1.603-.88-2.758s.293-2.075.88-2.758c.596-.684 1.392-1.026 2.39-1.026.998 0 1.795.342 2.39 1.026zM11.833 14c.219.39.516.584.892.584s.673-.195.892-.585c.219-.39.328-.922.328-1.6 0-.676-.11-1.21-.328-1.599-.219-.39-.516-.584-.892-.584s-.673.195-.892.584c-.212.39-.318.923-.318 1.6s.106 1.21.318 1.6z" fill="#2F3035"/></svg>
